public/assets/images/testimonials/14.svg

<svg width="110" height="110" viewBox="0 0 110 110" fill="none" xmlns="http://www.w3.org/2000/svg">
<rect width="110" height="110" rx="55" fill="white"/>
<path fill-rule="evenodd" clip-rule="evenodd" d="M36.4563 53.125H47.5C48.4946 53.125 49.4484 53.5201 50.1516 54.2234C50.8549 54.9266 51.25 55.8804 51.25 56.875V68.125C51.25 69.1196 50.8549 70.0734 50.1516 70.7766C49.4484 71.4799 48.4946 71.875 47.5 71.875H36.25C35.2554 71.875 34.3016 71.4799 33.5983 70.7766C32.8951 70.0734 32.5 69.1196 32.5 68.125V55.6562C32.5011 52.2613 33.3403 48.9192 34.943 45.9264C36.5457 42.9335 38.8624 40.3826 41.6875 38.5L45.0437 36.25L47.1062 39.3625L43.75 41.6125C41.8006 42.9188 40.1451 44.6174 38.8892 46.5997C37.6334 48.582 36.8047 50.8044 36.4563 53.125ZM62.7063 53.125H73.75C74.7446 53.125 75.6984 53.5201 76.4016 54.2234C77.1049 54.9266 77.5 55.8804 77.5 56.875V68.125C77.5 69.1196 77.1049 70.0734 76.4016 70.7766C75.6984 71.4799 74.7446 71.875 73.75 71.875H62.5C61.5054 71.875 60.5516 71.4799 59.8484 70.7766C59.1451 70.0734 58.75 69.1196 58.75 68.125V55.6562C58.7511 52.2613 59.5903 48.9192 61.193 45.9264C62.7957 42.9335 65.1124 40.3826 67.9375 38.5L71.3125 36.25L73.3563 39.3625L70 41.6125C68.0506 42.9188 66.3951 44.6174 65.1392 46.5997C63.8834 48.582 63.0547 50.8044 62.7063 53.125Z" fill="#0F62FE"/>
</svg>

<svg xmlns="http://www.w3.org/2000/svg" width="110" height="110" fill="none" viewBox="0 0 110 110"><rect width="110" height="110" fill="#fff" rx="55"/><path fill="#0f62fe" fill-rule="evenodd" d="M36.456 53.125H47.5a3.75 3.75 0 0 1 3.75 3.75v11.25a3.75 3.75 0 0 1-3.75 3.75H36.25a3.75 3.75 0 0 1-3.75-3.75V55.656A20.62 20.62 0 0 1 41.688 38.5l3.356-2.25 2.062 3.112-3.356 2.25a16.88 16.88 0 0 0-7.294 11.513m26.25 0H73.75a3.75 3.75 0 0 1 3.75 3.75v11.25a3.75 3.75 0 0 1-3.75 3.75H62.5a3.75 3.75 0 0 1-3.75-3.75V55.656A20.62 20.62 0 0 1 67.938 38.5l3.374-2.25 2.044 3.112L70 41.613a16.88 16.88 0 0 0-7.294 11.513" clip-rule="evenodd"/></svg>
